X:2100
O:Kevin Fraser
Z:Kevin Fraser
B: Logan's Complete Tutor
B: https://www.faclair.com/ViewDictionaryEntry.aspx?ID=5F6743D53EA41FEA3060652614165FF9
Q:1/4=120
K:HP
M:2/4
L:1/4
R:March
V:gstem=up stem=down
%%MIDI gracedivider 4
%%MIDI gchord
%%MIDI beatstring
T: Taorluath - darid (Lemluath + E grace)
|| A{GdGe}A A{GdGe}c | c{GdGe}A c{GdGe}c||
w: en dariden en darido | o dariden o darido
W: Note the distinct movements in the grip: 1 - Close to Low G, 2 - D gracenote on Low G 3 - move to next melody note with an E gracenote.
W: The toarluath can only be played onto low hand notes because of the E gracenote completing the movement.
W: 
T:Taorluath Scale (Played)             
|| A {G}{d}{G}{e} A | A/2 G/4{d}G/4{e} A      |A {G}{dG}{e}A   |A {GdG}{e}A |A {GdGe}A ||
w: en emtemun       | EN EM-TEM  en           | en emtemen     | en emtemen | en emtemen
w: as gracenotes    | as half doubling +grace | movements 2lift | grip +e    | as rudiment ||
w:
W: Unlike doublings, the beat is on the E gracenote.
M:4/4
T: A to Taorluath on Scale
|: {g}A{GdGe}A {g}A{GdGe}B |{g}A{GdGe}c {g}A{GBGe}d  :| 
w: hin dariden     hin darido   | hin darido   hin darida :|
w:                         | Note the B gracenote |
w: hin darid     hin droeo?   | hin droeo?   hin droea? :|
W:
T: Scale to Taorluath on A (Piobaireachd Taorluath)
|: {g}A{GdGe}A {g}B{GdGe}A | {g}c{GdGe}A {g}d{GBGe}A | {g}e{GdGe}A {g}f{GdGe}A | {a}g{GdGe}A a{GdGe}A :|
w: hin dariden     ho dariden   |  ho dariden     ha dariden    |  che dariden    he dariden    | hi dariden      I dariden    :|
T: Scale to Taorluath on same note (Piobaireachd Taorluath-a-mach)
|: e |{g}G2 {GdGe}G2 |  {g}A2 {GdGe}A2 | {g}B2 {GdGe}B2 |  {g}c2 {GdGe}c2 |
w: e | him  daridem  |   hin  dariden |   ho  darido   |    ho   darido  |
 |{g}d2 {GdGe}d2 | {g}c2 {GdGe}c2 |  {g}B2 {GdGe}B2  | {g}A2 {GdGe}A2 | {g}G2 {GdGe}G  :| 
w:   ha darida   |    ho darido   |    ho darido    |  hin  dariden  |  him  daridem   |
W:
T: Taorluath from D
|: e |{g}d2 {GBGe}G2 |  {g}d2 {GBGe}A2 | {g}d2 {GBGe}B2 |  {g}d2 {GBGe}c2 |
w: e | ha   daridem  |   ha   dariden |   ha   darido   |    ha   darido  |
 |{g}d2 {GBGe}d2 | {g}d2 {GBGe}c2 |  {g}d2 {GBGe}B2  | {g}d2 {GBGe}A2 | {g}d2 {GBGe}G  :| 
w:   ha darida   |    ha darido   |    ha  darido    |  ha   dariden  |  ha   daridem   |
W: When the taorluath is played on D the B gracenote is substituted for the D gracenote
W:
W: In piobaireachd the taorluath always ends on a Low A (darid)
W:     himdarid,hindarid,hodarid,hodarid,hadarid,chedarid,hebarid,hidarid,idarid
W: The taorluath-a-mach returns to the same melody note (B,C) (droeo)
W: Taorluath Breabach (Tripling) - himbabem,hindaen,hotoeo,hodoeo
W:
T: Redundant A Taorluath (Cameron Style)
 | A2 {GdGAe}c2 |
w: redundantA darido |
W: This style of Taorluath may be seen in Piobaireachd but won't be seen in Piob Mhor (light music).

